src/actions/symbolic/shuffler-swapwindows-symbolic.svg

<svg width="16" height="16" version="1.1" viewBox="0 0 16 16" xmlns="http://www.w3.org/2000/svg">
 <path d="m7.8789 3.3789-0.70703 0.70703 0.91406 0.91406h-5.0859v1h5.0859l-0.91406 0.91406 0.70703 0.70703 2.1211-2.1211-0.70703-0.70703z" fill="#363636" stop-color="#000000" stroke-linecap="round" stroke-linejoin="round" stroke-width="2"/>
 <path d="m8.1211 8.3789 0.70703 0.70703-0.91406 0.91406h5.0859v1h-5.0859l0.91406 0.91406-0.70703 0.70703-2.1211-2.1211 0.70703-0.70703z" fill="#363636" stop-color="#000000" stroke-linecap="round" stroke-linejoin="round" stroke-width="2"/>
 <path d="m11 3v5h5v-5h-5zm1 1h3v3h-3v-3z" fill="#363636" stop-color="#000000" stroke-linecap="round" stroke-linejoin="round" stroke-width="2"/>
 <path d="m0 8v5h5v-5zm1 1h3v3h-3z" fill="#363636" stop-color="#000000" stroke-linecap="round" stroke-linejoin="round" stroke-width="2"/>
</svg>

<svg xmlns="http://www.w3.org/2000/svg" width="16" height="16">
    <path fill="#050505" fill-opacity=".7" d="m7.879 3.379-.707.707.914.914H3v1h5.086l-.914.914.707.707L10 5.5l-.707-.707zM8.121 8.379l.707.707-.914.914H13v1H7.914l.914.914-.707.707L6 10.5l.707-.707zM11 3v5h5V3h-5zm1 1h3v3h-3V4zM0 8v5h5V8zm1 1h3v3H1z"/>
</svg>
